file/origin.svg

<svg clip-rule="evenodd" fill-rule="evenodd" stroke-linejoin="round" stroke-miterlimit="1.41421" viewBox="0 0 560 400" xmlns="http://www.w3.org/2000/svg"><g fill-rule="nonzero" transform="matrix(.950844 0 0 .950844 89.8366 54.4623)"><path d="m58.9 85.4c.7-.4 1.8-.1 2.1.8.3.7-.2 1.4-.6 1.9-2.8 3.9-4.6 8.5-5.5 13.2-.5.2-.7.8-.5 1.3.3.1.5.2.8.3 5.4-.5 10.8-.4 16.1.8 9.6 1.9 18.6 6.8 25.5 13.8 6.9 6.9 11.7 15.8 13.7 25.4 2.2 10.3 1 21.3-3.4 31-9.2 19.7-24.7 36.3-43.7 46.8-.6.3-1.5.3-1.9-.3-.5-.6-.3-1.5.2-2.1 2.6-3.6 4.3-7.7 5.3-12 .2-.9.4-1.8.4-2.7-.3-.4-.8-.3-1.3-.3-9.2.9-18.7-.7-27-4.8-8.9-4.3-16.5-11.3-21.5-19.9-4.6-7.9-7.1-17-6.9-26.1 0-8.4 2.3-16.7 6.3-24 9.4-18.1 24.1-33.3 41.9-43.1m-.5 48.1c-5.5.7-10.5 4-13.6 8.5-2.1 3.1-3.3 6.9-3.3 10.7-.2 5.1 1.9 10.2 5.4 13.8 3.1 3.3 7.3 5.4 11.8 6s9.3-.5 13.1-3c3.9-2.5 6.9-6.4 8.2-10.8 2.5-7.7-.5-16.7-7-21.5-4.1-3.1-9.5-4.5-14.6-3.7z" fill="#f15a23"/><path d="m234.1 114.6c3.6-1 7.6.5 9.6 3.6 1.4 2.2 1.8 5 1.1 7.4-1 3.1-3.8 5.6-7.1 6.1-3.2.5-6.6-.9-8.5-3.6-2-2.7-2.1-6.7-.3-9.5 1.1-1.9 3-3.4 5.2-4zm80.3 0c4-1 8.5 1.2 10.1 5 1.7 3.8.3 8.7-3.3 10.9-2.1 1.3-4.7 1.7-7.1 1-2.3-.6-4.3-2.3-5.4-4.5-1.3-2.5-1.2-5.6.1-8.1 1.1-2.1 3.2-3.8 5.6-4.3zm-164.5 8.7c6.2-.7 12.6.2 18.3 2.9 5 2.4 9.3 6.2 12.2 10.8 5.4 8.4 6 19.6 1.7 28.7-2.4 5.2-6.4 9.6-11.3 12.6-8.9 5.5-20.5 6.1-30.1 2-5.6-2.4-10.5-6.7-13.6-12-3.6-6-4.8-13.3-3.7-20.2 1-6.1 3.9-11.8 8.3-16.1 4.8-4.9 11.4-7.9 18.2-8.7m1.7 14.4c-3.2.4-6.2 2.1-8.4 4.5-5.3 5.9-5.2 15.9.2 21.7 2.9 3.2 7.2 4.9 11.5 4.6 3.7-.2 7.2-1.9 9.7-4.6 5.6-6.2 5.2-16.9-1.1-22.6-3.2-3-7.7-4.2-11.9-3.6zm224.3-8h5.4v1.2h-2v5.4h-1.3v-5.4h-2.1zm6.7 0h1.5c.6 1 1.2 2 1.9 2.9.7-1 1.3-2 1.9-3h1.4v6.6h-1.3v-4.4c-.7 1-1.3 2-2 3-.7-1-1.4-2.1-2-3.1v4.5h-1.3c-.1-2.1-.1-4.3-.1-6.5zm-85.4 3.1c.5-.4 1.1-.6 1.7-.8.6.3 1.3.7 1.3 1.5v38.5c-.1 4.9-.8 10.1-3.7 14.3-2.5 3.8-6.5 6.3-10.8 7.5-5.5 1.5-11.4 1.6-17 1-5-.6-10-1.9-14.6-4.1-.8-.3-1.3-1.2-.8-2 1.2-2.6 2.5-5.2 3.8-7.8.3-.9 1.4-1 2.2-.5 5 2.6 10.6 3.8 16.2 3.3 2.8-.3 5.7-1.4 7.4-3.7 1.9-2.4 2.1-5.7 2-8.6-2.4 2.7-5.4 5-8.9 5.9-5.5 1.4-11.6.3-16.3-2.9-3.8-2.6-6.4-6.8-7.4-11.2-.9-3.7-.9-7.6-.1-11.3.9-4.6 3.4-8.9 7.1-11.7 2.4-1.9 5.3-3.1 8.3-3.6 1.8-.3 3.6-.2 5.4-.2h11.2c.4 0 .9 0 1.2.3.9.8 1.7 1.7 2.6 2.6 2.9-2.3 6.1-4.3 9.2-6.5m-24.1 16.1c-1.8.4-3.4 1.4-4.6 2.9-2.7 3.2-2.5 8.4.4 11.4 3.5 3.6 10 3.6 13.5 0 3.1-3.2 3.1-8.8-.1-11.9-2.3-2.6-6-3.3-9.2-2.4zm82.5-11.3c2.9-1.3 6.1-1.5 9.2-1 3.2.5 6.3 2 8.3 4.5 1.9 2.2 2.9 5 3.4 7.9.4 2.4.3 4.8.3 7.2v23.9c.1.9-.5 1.8-1.5 1.7h-12.7c-.8.1-1.6-.6-1.5-1.4v-22.4c0-2.1-.5-4.4-2-6-2.6-2.6-7.7-2-9.6 1.2-1 1.6-1.2 3.5-1.2 5.3v21.9c.1.7-.5 1.4-1.2 1.4h-12.4c-.6 0-1.2.1-1.7-.4s-.4-1.3-.4-1.9v-40.5c-.1-.9.6-1.7 1.5-1.6 4.1-.1 8.3 0 12.4 0 .7 0 1.6.3 1.7 1.1.1 1.7 0 3.4 0 5.1 2.1-2.6 4.5-4.8 7.4-6zm-142.5.9c2-1.3 4.4-1.9 6.7-2 .8-.1 1.6.7 1.5 1.5v13.5c.1 1-.9 1.6-1.8 1.5-3.2 0-6.6 1-8.8 3.5-2.4 2.7-3.2 6.4-3.4 10v13.8c.1.8-.7 1.6-1.5 1.5h-12.7c-.8.1-1.5-.6-1.4-1.4v-41.7c0-.9.9-1.4 1.7-1.3h12.4c.8 0 1.6.6 1.6 1.4.1 2.4 0 4.9 0 7.3 1.2-3 3-5.8 5.7-7.6zm16.9-1.2c4-.1 8 0 12 0 .6 0 1.3-.1 1.8.5.4.4.4 1 .4 1.5v40.8c.1.8-.4 1.8-1.3 1.7h-13c-.9.1-1.5-.9-1.4-1.7v-41.1c-.1-1 .6-1.7 1.5-1.7zm79.9 0c4.2-.1 8.4 0 12.6 0 .8-.1 1.9.4 1.9 1.3v41.7c.1.7-.5 1.5-1.3 1.4h-13c-.7.1-1.2-.5-1.3-1.1-.2-1-.1-2-.1-2.9v-38.8c-.1-.7.4-1.5 1.2-1.6zm.3 62.3c.7-.1 1.4-.2 2.1-.3v16.7h-1.8c0-.3-.1-.6-.1-1-1.6 1-3.7 1.6-5.5.9-1.2-.4-1.7-1.7-1.7-2.9v-5.5c0-1.2.5-2.6 1.7-3.1 1.7-.7 3.6-.3 5.3-.1zm-4.9 8v5.2c-.1.6.2 1.3.9 1.5 1.5.4 2.9-.4 4.1-1.2v-6.8c-1.3-.2-2.6-.5-3.8-.2-.9 0-1.3.8-1.2 1.5zm16.8-8c.7-.1 1.4-.2 2.1-.3v5.5c1.5-.6 3.2-.9 4.9-.6 1.3.3 2.2 1.6 2.2 2.8v5.7c0 1.4-.9 2.7-2.2 3.1-2.2.7-4.6.3-6.9-.1-.1-5.3-.1-10.7-.1-16.1m2.1 7.2v7.5c1.2.1 2.4.3 3.6 0 .7-.2 1.2-.8 1.3-1.5.2-1.5.1-3.1.1-4.6 0-.8-.1-1.8-.9-2.1-1.4-.5-2.8.2-4.1.7zm-95.7-6.7h6c1.3 0 2.8.2 3.7 1.3s.8 2.6.8 3.9c0 1.2 0 2.6-.8 3.7-.8 1-2.1 1.3-3.2 1.3-1.4.1-2.9 0-4.3 0v5.7h-2.1c-.1-5.3-.1-10.6-.1-15.9m2.1 1.9v6.4c1.7-.1 3.4.2 5.1-.2 1.4-.4 1.1-2.1 1.1-3.2 0-1 .2-2.4-.9-2.8-1.7-.5-3.6-.2-5.3-.2zm121.3 14v-16h9.4v1.9h-7.3v5h6.7v1.9h-6.8v5.3h7.3v2c-3-.1-6.1-.1-9.3-.1zm16.7-15.9h2.9c1.7 5.3 3.6 10.6 5.4 15.9h-2.2c-.5-1.3-.9-2.5-1.3-3.8h-6.7c-.4 1.3-.8 2.5-1.3 3.8h-2.2c1.8-5.3 3.6-10.6 5.4-15.9m-1.4 10.2h5.6c-1-2.9-1.8-5.7-2.8-8.6-1 2.9-1.8 5.8-2.8 8.6zm-122.8-6c1.3-.3 2.7-.4 3.9 0 1.4.4 2.4 1.6 2.6 3s.1 2.9.1 4.3c0 1.2-.3 2.5-1.2 3.4-1 1-2.6 1.3-3.9 1.2-1.4 0-2.9-.5-3.7-1.7s-.7-2.7-.7-4c0-1.4-.2-2.9.5-4.3.5-.9 1.4-1.6 2.4-1.9m.8 1.7c-1 .2-1.6 1.2-1.6 2.1 0 1.5-.1 3.1.1 4.6.4 1.7 2.8 2 4.1 1.3 1.2-.6 1.1-2.2 1.1-3.3-.1-1.3.2-2.6-.4-3.8-.5-1.1-2.1-1.2-3.3-.9zm27.6-1.2c1.3-.8 2.8-.8 4.3-.6 1.2.2 2.3.9 2.8 2.1.6 1.5.3 3.2.4 4.7h-6.9c0 1.1-.2 2.6 1 3.2 1.8.7 3.7.1 5.5-.2.1.6.2 1.1.3 1.7-2.1.6-4.3.9-6.4.3-1.4-.4-2.3-1.8-2.4-3.2-.1-1.5 0-3.1 0-4.6-.2-1.3.3-2.7 1.4-3.4m1.2 1.5c-.9.7-.7 1.9-.7 2.9h4.9c0-1 .1-2.4-.9-3.1-1-.5-2.4-.4-3.3.2zm9.7-2h1.8c0 .5.1 1.1.1 1.6 1-.7 2.1-1.3 3.2-1.8.1.6.2 1.3.3 1.9-1.1.6-2.3 1.3-3.3 2v8h-2.1zm7.5 2.8c.2-1.5 1.6-2.7 3.1-2.9 1.7-.3 3.7-.2 4.9 1.1 1.3 1.6.8 3.8.9 5.7h-6.9c0 1.1-.2 2.8 1.1 3.3 1.8.5 3.6 0 5.3-.3.1.6.2 1.1.2 1.7-2.1.6-4.5 1-6.6.2-1.5-.5-2.2-2.2-2.1-3.6 0-1.8-.2-3.5.1-5.2m2.8-.9c-1 .7-.9 2-.9 3.1h4.9c0-1 .2-2.2-.7-3-.9-.7-2.3-.6-3.3-.1zm39.3-1.9h2c1.1 3.3 2.1 6.6 3.1 9.9 1.1-3.3 2.1-6.6 3.2-9.9h2.1c-1.8 5.5-3.6 11-5.5 16.4h-2c.5-1.5 1.1-3.1 1.6-4.6h-.8c-1.2-4-2.5-7.9-3.7-11.8zm-80.1 0h2c.6 3.2 1.3 6.3 1.9 9.5.9-3.2 1.9-6.3 2.8-9.5h2.5c.9 3.2 1.9 6.3 2.8 9.5.7-3.2 1.3-6.3 1.9-9.5h2c-.8 3.9-1.6 7.8-2.5 11.7h-2.6c-.9-3.2-1.8-6.5-2.8-9.7-.9 3.2-1.8 6.5-2.8 9.7h-2.6c-.9-3.9-1.7-7.8-2.6-11.7z" fill="#6d6e70"/></g></svg>

<?xml version="1.0" encoding="UTF-8" standalone="no"?>
<!DOCTYPE svg PUBLIC "-//W3C//DTD SVG 1.1//EN" "http://www.w3.org/Graphics/SVG/1.1/DTD/svg11.dtd">
<svg width="100%" height="100%" viewBox="0 0 560 400" version="1.1" xmlns="http://www.w3.org/2000/svg" xmlns:xlink="http://www.w3.org/1999/xlink" xml:space="preserve" xmlns:serif="http://www.serif.com/" style="fill-rule:evenodd;clip-rule:evenodd;stroke-linejoin:round;stroke-miterlimit:1.41421;">
    <g transform="matrix(0.950844,0,0,0.950844,89.8366,54.4623)">
        <path id="orange" d="M58.9,85.4C59.6,85 60.7,85.3 61,86.2C61.3,86.9 60.8,87.6 60.4,88.1C57.6,92 55.8,96.6 54.9,101.3C54.4,101.5 54.2,102.1 54.4,102.6C54.7,102.7 54.9,102.8 55.2,102.9C60.6,102.4 66,102.5 71.3,103.7C80.9,105.6 89.9,110.5 96.8,117.5C103.7,124.4 108.5,133.3 110.5,142.9C112.7,153.2 111.5,164.2 107.1,173.9C97.9,193.6 82.4,210.2 63.4,220.7C62.8,221 61.9,221 61.5,220.4C61,219.8 61.2,218.9 61.7,218.3C64.3,214.7 66,210.6 67,206.3C67.2,205.4 67.4,204.5 67.4,203.6C67.1,203.2 66.6,203.3 66.1,203.3C56.9,204.2 47.4,202.6 39.1,198.5C30.2,194.2 22.6,187.2 17.6,178.6C13,170.7 10.5,161.6 10.7,152.5C10.7,144.1 13,135.8 17,128.5C26.4,110.4 41.1,95.2 58.9,85.4M58.4,133.5C52.9,134.2 47.9,137.5 44.8,142C42.7,145.1 41.5,148.9 41.5,152.7C41.3,157.8 43.4,162.9 46.9,166.5C50,169.8 54.2,171.9 58.7,172.5C63.2,173.1 68,172 71.8,169.5C75.7,167 78.7,163.1 80,158.7C82.5,151 79.5,142 73,137.2C68.9,134.1 63.5,132.7 58.4,133.5Z" style="fill:rgb(241,90,35);fill-rule:nonzero;"/>
        <path id="grey" d="M234.1,114.6C237.7,113.6 241.7,115.1 243.7,118.2C245.1,120.4 245.5,123.2 244.8,125.6C243.8,128.7 241,131.2 237.7,131.7C234.5,132.2 231.1,130.8 229.2,128.1C227.2,125.4 227.1,121.4 228.9,118.6C230,116.7 231.9,115.2 234.1,114.6ZM314.4,114.6C318.4,113.6 322.9,115.8 324.5,119.6C326.2,123.4 324.8,128.3 321.2,130.5C319.1,131.8 316.5,132.2 314.1,131.5C311.8,130.9 309.8,129.2 308.7,127C307.4,124.5 307.5,121.4 308.8,118.9C309.9,116.8 312,115.1 314.4,114.6ZM149.9,123.3C156.1,122.6 162.5,123.5 168.2,126.2C173.2,128.6 177.5,132.4 180.4,137C185.8,145.4 186.4,156.6 182.1,165.7C179.7,170.9 175.7,175.3 170.8,178.3C161.9,183.8 150.3,184.4 140.7,180.3C135.1,177.9 130.2,173.6 127.1,168.3C123.5,162.3 122.3,155 123.4,148.1C124.4,142 127.3,136.3 131.7,132C136.5,127.1 143.1,124.1 149.9,123.3M151.6,137.7C148.4,138.1 145.4,139.8 143.2,142.2C137.9,148.1 138,158.1 143.4,163.9C146.3,167.1 150.6,168.8 154.9,168.5C158.6,168.3 162.1,166.6 164.6,163.9C170.2,157.7 169.8,147 163.5,141.3C160.3,138.3 155.8,137.1 151.6,137.7ZM375.9,129.7L381.3,129.7L381.3,130.9L379.3,130.9L379.3,136.3L378,136.3L378,130.9L375.9,130.9L375.9,129.7ZM382.6,129.7L384.1,129.7C384.7,130.7 385.3,131.7 386,132.6C386.7,131.6 387.3,130.6 387.9,129.6L389.3,129.6L389.3,136.2L388,136.2L388,131.8C387.3,132.8 386.7,133.8 386,134.8C385.3,133.8 384.6,132.7 384,131.7L384,136.2L382.7,136.2C382.6,134.1 382.6,131.9 382.6,129.7ZM297.2,132.8C297.7,132.4 298.3,132.2 298.9,132C299.5,132.3 300.2,132.7 300.2,133.5L300.2,172C300.1,176.9 299.4,182.1 296.5,186.3C294,190.1 290,192.6 285.7,193.8C280.2,195.3 274.3,195.4 268.7,194.8C263.7,194.2 258.7,192.9 254.1,190.7C253.3,190.4 252.8,189.5 253.3,188.7C254.5,186.1 255.8,183.5 257.1,180.9C257.4,180 258.5,179.9 259.3,180.4C264.3,183 269.9,184.2 275.5,183.7C278.3,183.4 281.2,182.3 282.9,180C284.8,177.6 285,174.3 284.9,171.4C282.5,174.1 279.5,176.4 276,177.3C270.5,178.7 264.4,177.6 259.7,174.4C255.9,171.8 253.3,167.6 252.3,163.2C251.4,159.5 251.4,155.6 252.2,151.9C253.1,147.3 255.6,143 259.3,140.2C261.7,138.3 264.6,137.1 267.6,136.6C269.4,136.3 271.2,136.4 273,136.4L284.2,136.4C284.6,136.4 285.1,136.4 285.4,136.7C286.3,137.5 287.1,138.4 288,139.3C290.9,137 294.1,135 297.2,132.8M273.1,148.9C271.3,149.3 269.7,150.3 268.5,151.8C265.8,155 266,160.2 268.9,163.2C272.4,166.8 278.9,166.8 282.4,163.2C285.5,160 285.5,154.4 282.3,151.3C280,148.7 276.3,148 273.1,148.9ZM355.6,137.6C358.5,136.3 361.7,136.1 364.8,136.6C368,137.1 371.1,138.6 373.1,141.1C375,143.3 376,146.1 376.5,149C376.9,151.4 376.8,153.8 376.8,156.2L376.8,180.1C376.9,181 376.3,181.9 375.3,181.8L362.6,181.8C361.8,181.9 361,181.2 361.1,180.4L361.1,158C361.1,155.9 360.6,153.6 359.1,152C356.5,149.4 351.4,150 349.5,153.2C348.5,154.8 348.3,156.7 348.3,158.5L348.3,180.4C348.4,181.1 347.8,181.8 347.1,181.8L334.7,181.8C334.1,181.8 333.5,181.9 333,181.4C332.5,180.9 332.6,180.1 332.6,179.5L332.6,139C332.5,138.1 333.2,137.3 334.1,137.4C338.2,137.3 342.4,137.4 346.5,137.4C347.2,137.4 348.1,137.7 348.2,138.5C348.3,140.2 348.2,141.9 348.2,143.6C350.3,141 352.7,138.8 355.6,137.6ZM213.1,138.5C215.1,137.2 217.5,136.6 219.8,136.5C220.6,136.4 221.4,137.2 221.3,138L221.3,151.5C221.4,152.5 220.4,153.1 219.5,153C216.3,153 212.9,154 210.7,156.5C208.3,159.2 207.5,162.9 207.3,166.5L207.3,180.3C207.4,181.1 206.6,181.9 205.8,181.8L193.1,181.8C192.3,181.9 191.6,181.2 191.7,180.4L191.7,138.7C191.7,137.8 192.6,137.3 193.4,137.4L205.8,137.4C206.6,137.4 207.4,138 207.4,138.8C207.5,141.2 207.4,143.7 207.4,146.1C208.6,143.1 210.4,140.3 213.1,138.5ZM230,137.3C234,137.2 238,137.3 242,137.3C242.6,137.3 243.3,137.2 243.8,137.8C244.2,138.2 244.2,138.8 244.2,139.3L244.2,180.1C244.3,180.9 243.8,181.9 242.9,181.8L229.9,181.8C229,181.9 228.4,180.9 228.5,180.1L228.5,139C228.4,138 229.1,137.3 230,137.3ZM309.9,137.3C314.1,137.2 318.3,137.3 322.5,137.3C323.3,137.2 324.4,137.7 324.4,138.6L324.4,180.3C324.5,181 323.9,181.8 323.1,181.7L310.1,181.7C309.4,181.8 308.9,181.2 308.8,180.6C308.6,179.6 308.7,178.6 308.7,177.7L308.7,138.9C308.6,138.2 309.1,137.4 309.9,137.3ZM310.2,199.6C310.9,199.5 311.6,199.4 312.3,199.3L312.3,216L310.5,216C310.5,215.7 310.4,215.4 310.4,215C308.8,216 306.7,216.6 304.9,215.9C303.7,215.5 303.2,214.2 303.2,213L303.2,207.5C303.2,206.3 303.7,204.9 304.9,204.4C306.6,203.7 308.5,204.1 310.2,204.3L310.2,199.6M305.3,207.6L305.3,212.8C305.2,213.4 305.5,214.1 306.2,214.3C307.7,214.7 309.1,213.9 310.3,213.1L310.3,206.3C309,206.1 307.7,205.8 306.5,206.1C305.6,206.1 305.2,206.9 305.3,207.6ZM322.1,199.6C322.8,199.5 323.5,199.4 324.2,199.3L324.2,204.8C325.7,204.2 327.4,203.9 329.1,204.2C330.4,204.5 331.3,205.8 331.3,207L331.3,212.7C331.3,214.1 330.4,215.4 329.1,215.8C326.9,216.5 324.5,216.1 322.2,215.7C322.1,210.4 322.1,205 322.1,199.6M324.2,206.8L324.2,214.3C325.4,214.4 326.6,214.6 327.8,214.3C328.5,214.1 329,213.5 329.1,212.8C329.3,211.3 329.2,209.7 329.2,208.2C329.2,207.4 329.1,206.4 328.3,206.1C326.9,205.6 325.5,206.3 324.2,206.8ZM228.5,200.1L234.5,200.1C235.8,200.1 237.3,200.3 238.2,201.4C239.1,202.5 239,204 239,205.3C239,206.5 239,207.9 238.2,209C237.4,210 236.1,210.3 235,210.3C233.6,210.4 232.1,210.3 230.7,210.3L230.7,216L228.6,216C228.5,210.7 228.5,205.4 228.5,200.1M230.6,202L230.6,208.4C232.3,208.3 234,208.6 235.7,208.2C237.1,207.8 236.8,206.1 236.8,205C236.8,204 237,202.6 235.9,202.2C234.2,201.7 232.3,202 230.6,202ZM351.9,216L351.9,200L361.3,200L361.3,201.9L354,201.9L354,206.9L360.7,206.9L360.7,208.8L353.9,208.8L353.9,214.1L361.2,214.1L361.2,216.1C358.2,216 355.1,216 351.9,216ZM368.6,200.1L371.5,200.1C373.2,205.4 375.1,210.7 376.9,216L374.7,216C374.2,214.7 373.8,213.5 373.4,212.2L366.7,212.2C366.3,213.5 365.9,214.7 365.4,216L363.2,216C365,210.7 366.8,205.4 368.6,200.1M367.2,210.3L372.8,210.3C371.8,207.4 371,204.6 370,201.7C369,204.6 368.2,207.5 367.2,210.3ZM244.4,204.3C245.7,204 247.1,203.9 248.3,204.3C249.7,204.7 250.7,205.9 250.9,207.3C251.1,208.7 251,210.2 251,211.6C251,212.8 250.7,214.1 249.8,215C248.8,216 247.2,216.3 245.9,216.2C244.5,216.2 243,215.7 242.2,214.5C241.4,213.3 241.5,211.8 241.5,210.5C241.5,209.1 241.3,207.6 242,206.2C242.5,205.3 243.4,204.6 244.4,204.3M245.2,206C244.2,206.2 243.6,207.2 243.6,208.1C243.6,209.6 243.5,211.2 243.7,212.7C244.1,214.4 246.5,214.7 247.8,214C249,213.4 248.9,211.8 248.9,210.7C248.8,209.4 249.1,208.1 248.5,206.9C248,205.8 246.4,205.7 245.2,206ZM272.8,204.8C274.1,204 275.6,204 277.1,204.2C278.3,204.4 279.4,205.1 279.9,206.3C280.5,207.8 280.2,209.5 280.3,211L273.4,211C273.4,212.1 273.2,213.6 274.4,214.2C276.2,214.9 278.1,214.3 279.9,214C280,214.6 280.1,215.1 280.2,215.7C278.1,216.3 275.9,216.6 273.8,216C272.4,215.6 271.5,214.2 271.4,212.8C271.3,211.3 271.4,209.7 271.4,208.2C271.2,206.9 271.7,205.5 272.8,204.8M274,206.3C273.1,207 273.3,208.2 273.3,209.2L278.2,209.2C278.2,208.2 278.3,206.8 277.3,206.1C276.3,205.6 274.9,205.7 274,206.3ZM283.7,204.3L285.5,204.3C285.5,204.8 285.6,205.4 285.6,205.9C286.6,205.2 287.7,204.6 288.8,204.1C288.9,204.7 289,205.4 289.1,206C288,206.6 286.8,207.3 285.8,208L285.8,216L283.7,216L283.7,204.3ZM291.2,207.1C291.4,205.6 292.8,204.4 294.3,204.2C296,203.9 298,204 299.2,205.3C300.5,206.9 300,209.1 300.1,211L293.2,211C293.2,212.1 293,213.8 294.3,214.3C296.1,214.8 297.9,214.3 299.6,214C299.7,214.6 299.8,215.1 299.8,215.7C297.7,216.3 295.3,216.7 293.2,215.9C291.7,215.4 291,213.7 291.1,212.3C291.1,210.5 290.9,208.8 291.2,207.1M294,206.2C293,206.9 293.1,208.2 293.1,209.3L298,209.3C298,208.3 298.2,207.1 297.3,206.3C296.4,205.6 295,205.7 294,206.2ZM333.3,204.3L335.3,204.3C336.4,207.6 337.4,210.9 338.4,214.2C339.5,210.9 340.5,207.6 341.6,204.3L343.7,204.3C341.9,209.8 340.1,215.3 338.2,220.7L336.2,220.7C336.7,219.2 337.3,217.6 337.8,216.1L337,216.1C335.8,212.1 334.5,208.2 333.3,204.3ZM253.2,204.3L255.2,204.3C255.8,207.5 256.5,210.6 257.1,213.8C258,210.6 259,207.5 259.9,204.3L262.4,204.3C263.3,207.5 264.3,210.6 265.2,213.8C265.9,210.6 266.5,207.5 267.1,204.3L269.1,204.3C268.3,208.2 267.5,212.1 266.6,216L264,216C263.1,212.8 262.2,209.5 261.2,206.3C260.3,209.5 259.4,212.8 258.4,216L255.8,216C254.9,212.1 254.1,208.2 253.2,204.3Z" style="fill:rgb(109,110,112);fill-rule:nonzero;"/>
    </g>
</svg>
